docs/static/img/icons/gituhubicon_small.svg

<svg width="16" height="16" viewBox="0 0 16 16" fill="none" xmlns="http://www.w3.org/2000/svg">
<path d="M7.99286 0.218751C3.57679 0.216965 0 3.79197 0 8.20447C0 11.6938 2.2375 14.6598 5.35357 15.7491C5.77321 15.8545 5.70893 15.5563 5.70893 15.3527V13.9688C3.28571 14.2527 3.1875 12.6491 3.025 12.3813C2.69643 11.8205 1.91964 11.6777 2.15179 11.4098C2.70357 11.1259 3.26607 11.4813 3.91786 12.4438C4.38929 13.142 5.30893 13.0241 5.775 12.908C5.87679 12.4884 6.09464 12.1134 6.39464 11.8223C3.88393 11.3723 2.8375 9.84018 2.8375 8.01875C2.8375 7.13482 3.12857 6.32232 3.7 5.66697C3.33571 4.58661 3.73393 3.66161 3.7875 3.52411C4.825 3.43125 5.90357 4.26697 5.9875 4.33304C6.57679 4.17411 7.25 4.09018 8.00357 4.09018C8.76071 4.09018 9.43571 4.17768 10.0304 4.33839C10.2321 4.18482 11.2321 3.46696 12.1964 3.55447C12.2482 3.69197 12.6375 4.59554 12.2946 5.66161C12.8732 6.31875 13.1679 7.13839 13.1679 8.02411C13.1679 9.84911 12.1143 11.383 9.59643 11.8259C9.81209 12.038 9.98333 12.2909 10.1001 12.5699C10.217 12.8489 10.277 13.1484 10.2768 13.4509V15.4598C10.2911 15.6205 10.2768 15.7795 10.5446 15.7795C13.7071 14.7134 15.9839 11.7259 15.9839 8.20625C15.9839 3.79196 12.4054 0.218751 7.99286 0.218751Z" fill="black"/>
</svg>

<svg xmlns="http://www.w3.org/2000/svg" width="16" height="16" fill="none" xmlns:v="https://vecta.io/nano"><path d="M7.993.219C3.577.217 0 3.792 0 8.204c0 3.489 2.238 6.455 5.354 7.545.42.105.355-.193.355-.396v-1.384c-2.423.284-2.521-1.32-2.684-1.588-.329-.561-1.105-.704-.873-.971.552-.284 1.114.071 1.766 1.034.471.698 1.391.58 1.857.464.102-.42.32-.795.62-1.086-2.511-.45-3.557-1.982-3.557-3.804 0-.884.291-1.696.863-2.352-.364-1.08.034-2.005.087-2.143 1.038-.093 2.116.743 2.2.809.589-.159 1.263-.243 2.016-.243s1.432.087 2.027.248c.202-.154 1.202-.871 2.166-.784.052.138.441 1.041.098 2.107.579.657.873 1.477.873 2.363 0 1.825-1.054 3.359-3.571 3.802.216.212.387.465.504.744s.177.579.177.881v2.009c.014.161 0 .32.268.32 3.162-1.066 5.439-4.054 5.439-7.573A7.99 7.99 0 0 0 7.993.219z" fill="#000"/></svg>
